svgs/regular/wheelchair-move.svg

<svg xmlns="http://www.w3.org/2000/svg" viewBox="0 0 448 512"><!--! Font Awesome Pro 6.4.2 by @fontawesome - https://fontawesome.com License - https://fontawesome.com/license (Commercial License) Copyright 2023 Fonticons, Inc. --><path d="M320 48a48 48 0 1 1 96 0 48 48 0 1 1 -96 0zM208.6 113c-8-3.4-17.2-2.2-24 3.2l-49.8 38.7c-10.5 8.1-25.5 6.3-33.7-4.2s-6.3-25.5 4.2-33.7l49.8-38.7c20.6-16 48.1-19.6 72.1-9.5l84.2 35.5c35.7 15 45.7 60.9 19.5 89.5L288.6 240H402.5c26.8 0 46 25.8 38.3 51.5L399 430.9c-3.8 12.7-17.2 19.9-29.9 16.1s-19.9-17.2-16.1-29.9L391.7 288H306.7c8.6 19.6 13.3 41.2 13.3 64c0 88.4-71.6 160-160 160S0 440.4 0 352s71.6-160 160-160c1.2 0 2.5 0 3.7 0l68.9-68.9-24-10.1zm87 48.2c3.7-4.1 2.3-10.6-2.8-12.8l-20.4-8.6-60.7 60.7c11.8 4 22.9 9.4 33.3 15.9l50.6-55.2zM160 464a112 112 0 1 0 0-224 112 112 0 1 0 0 224z"/></svg>

<svg xmlns="http://www.w3.org/2000/svg" viewBox="0 0 448 512"><!--! Font Awesome Pro 6.1.1 by @fontawesome - https://fontawesome.com License - https://fontawesome.com/license (Commercial License) Copyright 2022 Fonticons, Inc. --><path d="M416 48C416 74.51 394.5 96 368 96C341.5 96 320 74.51 320 48C320 21.49 341.5 0 368 0C394.5 0 416 21.49 416 48zM208.6 113C200.6 109.7 191.4 110.9 184.5 116.2L134.7 154.9C124.3 163.1 109.2 161.2 101.1 150.7C92.92 140.3 94.8 125.2 105.3 117.1L155.1 78.31C175.6 62.33 203.2 58.68 227.2 68.79L311.4 104.3C347.1 119.3 357.2 165.2 330.1 193.7L288.6 240H424C431.6 240 438.7 243.6 443.3 249.7C447.8 255.8 449.2 263.6 446.1 270.9L398.1 430.9C395.2 443.6 381.8 450.8 369.1 446.1C356.4 443.2 349.2 429.8 353 417.1L391.7 288H306.7C315.3 307.6 320 329.2 320 352C320 440.4 248.4 512 160 512C71.63 512 0 440.4 0 352C0 263.6 71.63 192 160 192C161.2 192 162.5 192 163.7 192L232.6 123.1L208.6 113zM292.8 148.5L272.4 139.9L211.7 200.5C223.5 204.6 234.7 209.9 245 216.4L295.6 161.3C299.4 157.2 297.9 150.6 292.8 148.5V148.5zM160 464C221.9 464 272 413.9 272 352C272 290.1 221.9 240 160 240C98.14 240 48 290.1 48 352C48 413.9 98.14 464 160 464z"/></svg>
